!!! OTL: Berkowitz487
!!! Chapter: 1
!!! Section: IV
!!! Page: 121
!!! Mode: 
!!! Encoder: DJB
**kern
*staff1
*I"Piano
=1-
*clefC4
*k[f#c#g#d#]
*E:
*M4/4
4e\
4e\
4.e\
8c#\
=2
8.B\L
16c#\Jk
8B\L
8A\J
8G#/L
8F#/J
4E/
=3
4e\
4e\
4.e\
8cn\
=4
8.B\L
16cn\Jk
8B\L
8A\J
8Gn/L
8F#/J
4E/
=5
8r
16D#/LL
16E/JJ
8F#/
8r
16r
16F#/LL
16E/
16F#/JJ
8G#/
8r
=6
!!linebreak:original
16r
16G#/LL
16F#/
16G#/JJ
8A#/L
8F#/J
4B\
4BB/
=7
4e\
4E/
2cn\
=8
8.B\L
16c#\Jk
8B\L
8A\J
4G#/
4F#/
=9
2E/
2r
==
*-
